dist/res/image/work_face/work_detail.svg

<svg width="126" height="28" viewBox="0 0 126 28" fill="none" xmlns="http://www.w3.org/2000/svg">
<rect x="0.5" y="0.5" width="39" height="27" rx="1.5" fill="#E1E8EE"/>
<rect x="0.5" y="0.5" width="39" height="27" rx="1.5" stroke="#475D75"/>
<path d="M11.7229 20V8.6875H15.6916C18.0666 8.6875 19.1838 10.0234 19.176 11.6875C19.1838 13.1406 18.3166 13.7891 17.3323 14.0625V14.1719C18.3869 14.2344 19.6213 15.2031 19.6291 17C19.6213 18.6953 18.5041 20 15.8323 20H11.7229ZM13.1291 18.75H15.8166C17.5901 18.75 18.2776 17.9688 18.2698 16.9844C18.2776 15.8359 17.3479 14.8594 15.8948 14.8594H13.1291V18.75ZM13.1291 13.6406H15.6448C16.8713 13.6484 17.8323 12.8828 17.8323 11.7031C17.8323 10.7188 17.1682 9.9375 15.6916 9.9375H13.1291V13.6406ZM22.1719 8.6875L25.0469 13.3594H25.1406L28.0313 8.6875H29.6875L26.1406 14.3438L29.6875 20H28.0313L25.1406 15.4219H25.0469L22.1563 20H20.5L24.1406 14.3438L20.5 8.6875H22.1719Z" fill="#475D75"/>
<rect x="45" width="81" height="28" rx="2" fill="#475D75"/>
<path d="M56.681 20V8.6875H60.5247C63.1732 8.6875 64.3841 10.2656 64.3841 12.2812C64.3841 14.2891 63.1732 15.8906 60.5404 15.8906H58.0872V20H56.681ZM58.0872 14.6406H60.4779C62.2826 14.6406 62.9857 13.625 62.9935 12.2812C62.9857 10.9297 62.2826 9.9375 60.4622 9.9375H58.0872V14.6406ZM65.5831 17.5938C65.5831 15.6484 67.3019 15.2031 68.7706 15.0938C69.3175 15.0547 70.6847 14.9766 71.0675 14.9688V14.2812C71.0675 13.2031 70.4269 12.5781 69.1456 12.5781C68.0753 12.5781 67.4269 13.0703 67.2394 13.7188H65.8331C66.005 12.3516 67.3331 11.4062 69.2081 11.4062C70.3175 11.4062 72.4034 11.7344 72.3956 14.4062V20H71.0675V18.8438H71.005C70.7238 19.4141 69.9503 20.1953 68.4738 20.2031C66.8644 20.1953 65.5831 19.25 65.5831 17.5938ZM66.9269 17.6562C66.9347 18.5547 67.6769 19.0078 68.7081 19C70.2238 19.0078 71.0675 17.9922 71.0675 16.9219V16.0703C70.6691 16.0938 69.3331 16.1953 68.9269 16.2188C67.7081 16.2969 66.9347 16.7266 66.9269 17.6562ZM77.8446 20.1719C75.4384 20.1797 73.9696 18.3438 73.9696 15.7969C73.9696 13.2188 75.5087 11.4062 77.8134 11.4062C79.6181 11.4062 80.9774 12.4766 81.1884 14.0781H79.8446C79.6493 13.3047 78.9774 12.5938 77.8446 12.5938C76.329 12.5938 75.3212 13.8438 75.3134 15.75C75.3212 17.7109 76.3056 18.9688 77.8446 18.9688C78.8446 18.9688 79.6103 18.4297 79.8446 17.5H81.1884C80.9774 19.0156 79.7274 20.1797 77.8446 20.1719ZM82.6686 20V8.6875H84.0124V15.2656H84.1686L87.8405 11.5156H89.4967L85.9186 15.1484L89.7624 20H88.0592L84.9108 16L84.0124 16.8359V20H82.6686ZM90.352 17.5938C90.352 15.6484 92.0708 15.2031 93.5395 15.0938C94.0864 15.0547 95.4536 14.9766 95.8364 14.9688V14.2812C95.8364 13.2031 95.1958 12.5781 93.9145 12.5781C92.8442 12.5781 92.1958 13.0703 92.0083 13.7188H90.602C90.7739 12.3516 92.102 11.4062 93.977 11.4062C95.0864 11.4062 97.1723 11.7344 97.1645 14.4062V20H95.8364V18.8438H95.7739C95.4926 19.4141 94.7192 20.1953 93.2426 20.2031C91.6333 20.1953 90.352 19.25 90.352 17.5938ZM91.6958 17.6562C91.7036 18.5547 92.4458 19.0078 93.477 19C94.9926 19.0078 95.8364 17.9922 95.8364 16.9219V16.0703C95.4379 16.0938 94.102 16.1953 93.6958 16.2188C92.477 16.2969 91.7036 16.7266 91.6958 17.6562ZM102.582 23.3594C100.528 23.3594 99.1369 22.4609 98.9885 20.8906H100.395C100.574 21.7578 101.379 22.1875 102.582 22.1875C104.035 22.1875 104.926 21.5547 104.926 20.1562V18.4375H104.817C104.528 18.9062 103.988 19.8672 102.348 19.875C100.285 19.8672 98.7385 18.3125 98.7385 15.6406C98.7385 13.0312 100.231 11.4062 102.363 11.4062C104.012 11.4062 104.543 12.4062 104.848 12.8594H104.957V11.5156H106.27V20.2344C106.262 22.4219 104.653 23.3594 102.582 23.3594ZM100.098 15.6875C100.098 17.4453 100.926 18.6719 102.535 18.6719C104.09 18.6719 104.949 17.5547 104.957 15.6875C104.949 13.8672 104.113 12.6094 102.535 12.6094C100.903 12.6094 100.098 13.9766 100.098 15.6875ZM111.797 20.1719C109.344 20.1797 107.828 18.4297 107.828 15.8281C107.828 13.2188 109.367 11.4062 111.672 11.4062C113.453 11.4062 115.336 12.5 115.328 15.6406V16.2031H109.172C109.242 18 110.289 18.9844 111.797 18.9844C112.812 18.9844 113.453 18.5391 113.766 18.0156H115.203C114.805 19.3047 113.547 20.1797 111.797 20.1719ZM109.18 15.0625H113.969C113.961 13.6484 113.07 12.5938 111.672 12.5938C110.203 12.5938 109.273 13.75 109.18 15.0625Z" fill="#E1E8EE"/>
</svg>

<svg xmlns="http://www.w3.org/2000/svg" width="126" height="28" fill="none"><rect width="39" height="27" x=".5" y=".5" fill="#E1E8EE" rx="1.5"/><rect width="39" height="27" x=".5" y=".5" stroke="#475D75" rx="1.5"/><path fill="#475D75" d="M11.723 20V8.688h3.969c2.375 0 3.492 1.335 3.484 3 .008 1.453-.86 2.101-1.844 2.374v.11c1.055.062 2.29 1.031 2.297 2.828-.008 1.695-1.125 3-3.797 3zm1.406-1.25h2.688c1.773 0 2.46-.781 2.453-1.766.008-1.148-.922-2.125-2.375-2.125h-2.766zm0-5.11h2.516c1.226.008 2.187-.757 2.187-1.937 0-.984-.664-1.765-2.14-1.765h-2.563zm9.043-4.953 2.875 4.672h.094l2.89-4.671h1.657l-3.547 5.656L29.688 20H28.03l-2.89-4.578h-.094L22.157 20H20.5l3.64-5.656-3.64-5.656z"/><rect width="81" height="28" x="45" fill="#475D75" rx="2"/><path fill="#E1E8EE" d="M56.681 20V8.688h3.844c2.648 0 3.86 1.578 3.86 3.593 0 2.008-1.212 3.61-3.845 3.61h-2.453V20zm1.406-5.36h2.39c1.806 0 2.509-1.015 2.517-2.359-.008-1.351-.711-2.344-2.532-2.344h-2.375zm7.496 2.954c0-1.946 1.719-2.39 3.188-2.5.546-.04 1.914-.117 2.296-.125v-.688c0-1.078-.64-1.703-1.921-1.703-1.07 0-1.72.492-1.907 1.14h-1.406c.172-1.366 1.5-2.312 3.375-2.312 1.11 0 3.195.328 3.188 3V20h-1.329v-1.156h-.062c-.281.57-1.055 1.351-2.531 1.36-1.61-.009-2.89-.954-2.89-2.61m1.344.062c.008.899.75 1.352 1.781 1.344 1.516.008 2.36-1.008 2.36-2.078v-.852c-.399.024-1.735.125-2.141.149-1.219.078-1.992.508-2 1.437m10.918 2.516c-2.407.008-3.875-1.828-3.875-4.375 0-2.578 1.539-4.39 3.843-4.39 1.805 0 3.164 1.07 3.375 2.671h-1.343c-.196-.773-.868-1.484-2-1.484-1.516 0-2.524 1.25-2.532 3.156.008 1.96.993 3.219 2.532 3.219 1 0 1.765-.54 2-1.469h1.343c-.21 1.516-1.46 2.68-3.343 2.672M82.669 20V8.688h1.343v6.578h.157l3.672-3.75h1.656l-3.578 3.632L89.762 20H88.06l-3.148-4-.899.836V20zm7.683-2.406c0-1.946 1.719-2.39 3.188-2.5.546-.04 1.914-.117 2.296-.125v-.688c0-1.078-.64-1.703-1.921-1.703-1.07 0-1.72.492-1.907 1.14h-1.406c.172-1.366 1.5-2.312 3.375-2.312 1.11 0 3.195.328 3.188 3V20h-1.329v-1.156h-.062c-.281.57-1.055 1.351-2.531 1.36-1.61-.009-2.891-.954-2.891-2.61m1.344.062c.008.899.75 1.352 1.781 1.344 1.516.008 2.36-1.008 2.36-2.078v-.852c-.4.024-1.735.125-2.141.149-1.219.078-1.992.508-2 1.437m10.886 5.703c-2.054 0-3.445-.898-3.593-2.468h1.406c.179.867.984 1.297 2.187 1.297 1.453 0 2.344-.633 2.344-2.032v-1.718h-.109c-.289.468-.829 1.43-2.469 1.437-2.063-.008-3.61-1.562-3.61-4.234 0-2.61 1.493-4.235 3.625-4.235 1.649 0 2.18 1 2.485 1.453h.109v-1.343h1.313v8.718c-.008 2.188-1.617 3.125-3.688 3.125m-2.484-7.672c0 1.758.828 2.985 2.437 2.985 1.555 0 2.414-1.117 2.422-2.985-.008-1.82-.844-3.078-2.422-3.078-1.632 0-2.437 1.368-2.437 3.079m11.699 4.485c-2.453.008-3.969-1.742-3.969-4.344 0-2.61 1.539-4.422 3.844-4.422 1.781 0 3.664 1.094 3.656 4.235v.562h-6.156c.07 1.797 1.117 2.781 2.625 2.781 1.015 0 1.656-.445 1.969-.968h1.437c-.398 1.289-1.656 2.164-3.406 2.156m-2.617-5.11h4.789c-.008-1.414-.899-2.468-2.297-2.468-1.469 0-2.399 1.156-2.492 2.469"/></svg>
